public/steps/palette.svg

<svg width="32" height="32" viewBox="0 0 32 32" fill="none" xmlns="http://www.w3.org/2000/svg">
<path d="M26.5946 5.12844C23.7986 2.46613 20.0421 1 16.0169 1C12.2655 1 8.52594 2.25456 5.75719 4.44194C2.6895 6.86562 1 10.2601 1 14C1 17.7563 1.97069 20.1794 4.05475 21.6262C5.80475 22.8411 8.3305 23.3594 12.5 23.3594H14.3594C14.7943 23.3599 15.2114 23.5329 15.5189 23.8405C15.8265 24.148 15.9995 24.565 16 25V27.999C16 28.5294 16.2107 29.0381 16.5858 29.4132C16.9609 29.7883 17.4696 29.999 18 29.999L23.6742 29.9935C24.1202 29.9925 24.5531 29.843 24.9046 29.5685C25.5124 29.0921 27.075 27.731 28.4546 25.3873C30.1438 22.5164 31 19.1898 31 15.5C31 11.5168 29.4355 7.83337 26.5946 5.12844ZM26.7304 24.3731C25.5242 26.4226 24.189 27.5886 23.6722 27.9935L18 27.999V25C17.9989 24.0348 17.615 23.1094 16.9325 22.4269C16.25 21.7444 15.3246 21.3605 14.3594 21.3594H12.5C8.76937 21.3594 6.58475 20.9478 5.19525 19.9832C3.67706 18.9293 3 17.084 3 14C3 7.11456 9.61875 3 16.0169 3C23.2972 3 29 8.49069 29 15.5C29 18.8283 28.2364 21.8137 26.7304 24.3731Z" fill="#94A3B8"/>
<path d="M8 9C7.30777 9 6.63108 9.20527 6.0555 9.58986C5.47993 9.97444 5.03133 10.5211 4.76642 11.1606C4.50152 11.8001 4.4322 12.5039 4.56725 13.1828C4.7023 13.8617 5.03564 14.4854 5.52513 14.9749C6.01461 15.4644 6.63825 15.7977 7.31718 15.9327C7.99612 16.0678 8.69985 15.9985 9.33939 15.7336C9.97893 15.4687 10.5256 15.0201 10.9101 14.4445C11.2947 13.8689 11.5 13.1922 11.5 12.5C11.4989 11.5721 11.1299 10.6824 10.4737 10.0263C9.81756 9.37015 8.92793 9.00106 8 9ZM8 14C7.70333 14 7.41332 13.912 7.16664 13.7472C6.91997 13.5824 6.72771 13.3481 6.61418 13.074C6.50065 12.7999 6.47094 12.4983 6.52882 12.2074C6.5867 11.9164 6.72956 11.6491 6.93934 11.4393C7.14912 11.2296 7.41639 11.0867 7.70736 11.0288C7.99834 10.9709 8.29994 11.0006 8.57403 11.1142C8.84811 11.2277 9.08238 11.42 9.2472 11.6666C9.41203 11.9133 9.5 12.2033 9.5 12.5C9.49955 12.8977 9.34137 13.279 9.06017 13.5602C8.77896 13.8414 8.39769 13.9996 8 14ZM15 4.5C14.3078 4.5 13.6311 4.70527 13.0555 5.08986C12.4799 5.47444 12.0313 6.02107 11.7664 6.66061C11.5015 7.30015 11.4322 8.00388 11.5673 8.68282C11.7023 9.36175 12.0356 9.98539 12.5251 10.4749C13.0146 10.9644 13.6382 11.2977 14.3172 11.4327C14.9961 11.5678 15.6999 11.4985 16.3394 11.2336C16.9789 10.9687 17.5256 10.5201 17.9101 9.9445C18.2947 9.36892 18.5 8.69223 18.5 8C18.4989 7.07207 18.1299 6.18244 17.4737 5.5263C16.8176 4.87015 15.9279 4.50106 15 4.5ZM15 9.5C14.7033 9.5 14.4133 9.41203 14.1666 9.2472C13.92 9.08238 13.7277 8.84811 13.6142 8.57403C13.5006 8.29994 13.4709 7.99834 13.5288 7.70736C13.5867 7.41639 13.7296 7.14912 13.9393 6.93934C14.1491 6.72956 14.4164 6.5867 14.7074 6.52882C14.9983 6.47094 15.2999 6.50065 15.574 6.61418C15.8481 6.72771 16.0824 6.91997 16.2472 7.16664C16.412 7.41332 16.5 7.70333 16.5 8C16.4996 8.39769 16.3414 8.77896 16.0602 9.06017C15.779 9.34138 15.3977 9.49955 15 9.5ZM22.5 8C21.8078 8 21.1311 8.20527 20.5555 8.58986C19.9799 8.97444 19.5313 9.52107 19.2664 10.1606C19.0015 10.8001 18.9322 11.5039 19.0673 12.1828C19.2023 12.8617 19.5356 13.4854 20.0251 13.9749C20.5146 14.4644 21.1383 14.7977 21.8172 14.9327C22.4961 15.0678 23.1999 14.9985 23.8394 14.7336C24.4789 14.4687 25.0256 14.0201 25.4101 13.4445C25.7947 12.8689 26 12.1922 26 11.5C25.9989 10.5721 25.6299 9.68244 24.9737 9.0263C24.3176 8.37015 23.4279 8.00106 22.5 8ZM22.5 13C22.2033 13 21.9133 12.912 21.6666 12.7472C21.42 12.5824 21.2277 12.3481 21.1142 12.074C21.0007 11.7999 20.9709 11.4983 21.0288 11.2074C21.0867 10.9164 21.2296 10.6491 21.4393 10.4393C21.6491 10.2296 21.9164 10.0867 22.2074 10.0288C22.4983 9.97094 22.7999 10.0006 23.074 10.1142C23.3481 10.2277 23.5824 10.42 23.7472 10.6666C23.912 10.9133 24 11.2033 24 11.5C23.9996 11.8977 23.8414 12.279 23.5602 12.5602C23.279 12.8414 22.8977 12.9996 22.5 13ZM23.5 16.5C22.8078 16.5 22.1311 16.7053 21.5555 17.0899C20.9799 17.4744 20.5313 18.0211 20.2664 18.6606C20.0015 19.3001 19.9322 20.0039 20.0673 20.6828C20.2023 21.3617 20.5356 21.9854 21.0251 22.4749C21.5146 22.9644 22.1383 23.2977 22.8172 23.4327C23.4961 23.5678 24.1999 23.4985 24.8394 23.2336C25.4789 22.9687 26.0256 22.5201 26.4101 21.9445C26.7947 21.3689 27 20.6922 27 20C26.9989 19.0721 26.6299 18.1824 25.9737 17.5263C25.3176 16.8701 24.4279 16.5011 23.5 16.5ZM23.5 21.5C23.2033 21.5 22.9133 21.412 22.6666 21.2472C22.42 21.0824 22.2277 20.8481 22.1142 20.574C22.0007 20.2999 21.9709 19.9983 22.0288 19.7074C22.0867 19.4164 22.2296 19.1491 22.4393 18.9393C22.6491 18.7296 22.9164 18.5867 23.2074 18.5288C23.4983 18.4709 23.7999 18.5007 24.074 18.6142C24.3481 18.7277 24.5824 18.92 24.7472 19.1666C24.912 19.4133 25 19.7033 25 20C24.9996 20.3977 24.8414 20.779 24.5602 21.0602C24.279 21.3414 23.8977 21.4996 23.5 21.5Z" fill="#94A3B8"/>
</svg>

<svg xmlns="http://www.w3.org/2000/svg" width="32" height="32" fill="none"><path fill="#94A3B8" d="M26.6 5.13A15.23 15.23 0 0 0 16.01 1 16.8 16.8 0 0 0 5.76 4.44 12.02 12.02 0 0 0 1 14c0 3.76.97 6.18 3.05 7.63 1.75 1.21 4.28 1.73 8.45 1.73h1.86A1.64 1.64 0 0 1 16 25v3a2 2 0 0 0 2 2h5.67a2 2 0 0 0 1.23-.43c.61-.48 2.18-1.84 3.55-4.18A19.21 19.21 0 0 0 31 15.5c0-3.98-1.56-7.67-4.4-10.37Zm.13 19.24A13.1 13.1 0 0 1 23.67 28H18V25a3.64 3.64 0 0 0-3.64-3.64H12.5c-3.73 0-5.92-.41-7.3-1.38C3.68 18.93 3 17.08 3 14 3 7.11 9.62 3 16.02 3 23.3 3 29 8.5 29 15.5c0 3.33-.76 6.31-2.27 8.87Z"/><path fill="#94A3B8" d="M8 9a3.5 3.5 0 1 0 0 7 3.5 3.5 0 0 0 0-7Zm0 5a1.5 1.5 0 1 1 0-3 1.5 1.5 0 0 1 0 3Zm7-9.5a3.5 3.5 0 1 0 0 7 3.5 3.5 0 0 0 0-7Zm0 5a1.5 1.5 0 1 1 0-3 1.5 1.5 0 0 1 0 3ZM22.5 8a3.5 3.5 0 1 0 0 7 3.5 3.5 0 0 0 0-7Zm0 5a1.5 1.5 0 1 1 0-3 1.5 1.5 0 0 1 0 3Zm1 3.5a3.5 3.5 0 1 0 0 7 3.5 3.5 0 0 0 0-7Zm0 5a1.5 1.5 0 1 1 0-3 1.5 1.5 0 0 1 0 3Z"/></svg>
